<?xml version="1.0" encoding="UTF-8"?>
<map version="1.10" tiledversion="1.12.2" orientation="orthogonal" renderorder="right-down" width="60" height="40" tilewidth="16" tileheight="16" infinite="0" nextlayerid="4" nextobjectid="101">
 <tileset firstgid="1" source="level02/Terrain (16x16).tsx"/>
 <tileset firstgid="243" source="level02/Idle.tsx"/>
 <tileset firstgid="244" source="level02/On (24x8).tsx"/>
 <tileset firstgid="248" source="level02/Sand Mud Ice (16x6).tsx"/>
 <tileset firstgid="303" source="level02/Mud Particle.tsx"/>
 <tileset firstgid="304" source="level02/Bananas.tsx"/>
 <tileset firstgid="321" source="level02/player1.tsx"/>
 <imagelayer id="2" name="Background" repeatx="1" repeaty="1">
  <image source="level02/Brown.png" width="64" height="64"/>
 </imagelayer>
 <layer id="1" name="碰撞" width="60" height="40">
  <data encoding="csv">
211,189,190,190,190,190,190,190,190,190,190,190,190,190,190,190,190,190,190,190,190,190,190,190,190,190,190,190,190,190,190,190,190,190,190,190,190,190,190,190,190,190,190,190,190,190,190,190,190,190,190,190,190,190,190,190,190,190,190,211,
192,0,0,0,0,0,0,252,285,286,285,286,285,286,285,286,285,286,285,286,285,286,285,286,285,286,285,286,285,286,285,286,285,286,285,286,285,286,285,286,285,286,285,286,285,286,285,286,285,286,285,286,254,0,0,0,0,0,0,192,
214,0,0,0,0,0,0,274,296,297,296,297,296,297,296,297,296,297,296,297,296,297,296,297,296,297,296,297,296,297,296,297,296,297,296,297,296,297,296,297,296,297,296,297,296,297,296,297,296,297,296,297,276,0,0,0,0,0,0,214,
214,0,0,0,0,0,0,0,0,0,0,0,0,0,0,0,0,0,0,0,0,0,0,0,0,0,0,0,0,0,0,0,0,0,0,0,0,0,0,0,0,0,0,0,0,0,0,0,0,0,0,0,0,0,0,0,0,0,0,214,
214,0,0,0,0,0,0,0,0,0,0,0,0,0,0,0,0,0,0,0,0,0,0,0,0,0,0,0,0,0,0,0,0,0,0,0,0,0,0,0,0,0,0,0,0,0,0,0,0,0,0,0,0,0,0,0,0,0,0,214,
214,0,0,0,0,0,0,0,0,0,0,0,0,0,0,0,0,0,0,0,0,0,0,0,0,0,0,0,0,0,0,0,0,0,0,0,0,0,0,0,0,0,0,0,0,0,0,0,0,0,0,0,0,0,0,0,0,0,0,214,
214,0,0,0,0,0,0,0,0,0,0,0,0,0,0,0,0,0,0,0,0,0,0,0,0,0,0,0,0,0,0,0,0,0,0,0,0,0,0,0,0,0,0,0,0,0,0,0,0,0,0,0,0,0,0,0,0,0,0,214,
214,0,0,0,0,0,0,0,0,0,0,0,0,0,0,0,0,0,0,0,0,0,0,0,0,0,0,0,0,0,0,0,0,0,0,0,0,0,0,0,0,0,0,0,0,0,0,0,0,0,0,0,0,0,0,0,0,0,0,214,
214,0,0,0,0,0,0,0,0,0,0,0,0,0,0,0,0,0,0,0,0,0,0,0,0,0,0,0,0,0,0,0,0,0,0,0,0,0,0,0,0,0,0,0,0,0,0,0,0,0,0,0,0,0,0,0,0,0,0,214,
214,0,0,0,0,0,0,0,0,0,0,0,0,0,0,0,0,0,0,0,0,0,0,0,0,0,0,0,0,0,0,0,0,0,0,0,0,0,0,0,0,0,0,0,0,0,0,0,0,0,0,0,0,0,0,0,0,0,0,214,
214,0,0,0,0,0,0,0,0,0,0,0,0,0,0,0,0,0,0,0,0,0,0,0,0,0,0,0,0,0,0,0,0,0,0,0,0,0,0,0,0,0,0,0,0,0,0,0,0,0,0,0,0,0,0,0,0,0,0,214,
214,0,0,0,0,0,0,0,0,0,0,0,0,0,0,0,0,0,0,0,0,0,0,0,0,0,0,0,0,0,0,0,0,0,0,0,0,0,0,0,0,0,0,0,0,0,0,0,0,0,0,0,0,0,0,0,0,0,0,214,
214,0,0,0,0,0,0,0,0,0,0,0,0,0,0,0,0,0,0,0,0,0,0,0,0,0,0,0,0,0,0,0,0,0,0,0,0,0,0,0,0,0,0,0,0,0,0,0,0,0,0,0,0,0,0,0,0,0,0,214,
214,0,0,0,0,0,0,0,62,63,63,63,63,63,63,63,63,63,63,63,63,63,63,63,63,63,63,63,63,63,63,63,63,63,63,63,63,63,63,63,63,63,63,63,63,63,63,63,63,63,63,64,0,0,0,0,0,0,0,214,
214,0,0,0,0,0,0,0,0,0,0,0,0,0,0,0,0,0,0,0,0,0,0,0,0,0,0,0,0,0,0,0,0,0,0,0,0,0,0,0,0,0,0,0,0,0,0,0,0,0,0,0,0,0,0,0,0,0,0,214,
214,0,0,0,0,0,0,0,0,0,0,0,0,0,0,0,0,0,0,0,0,0,0,0,0,0,0,0,0,0,0,0,0,0,0,0,0,0,0,0,0,0,0,0,0,0,0,0,0,0,0,0,0,0,0,0,0,0,0,214,
214,0,0,0,0,0,0,0,0,0,0,0,0,0,0,0,0,0,0,0,0,0,0,0,0,0,0,0,0,0,0,0,0,0,0,0,0,0,0,0,0,0,0,0,0,0,0,0,0,0,0,0,0,0,0,0,0,0,0,214,
214,0,0,0,0,0,0,0,0,0,0,0,0,0,0,0,0,0,0,0,0,0,0,0,0,0,0,0,0,0,0,0,0,0,0,0,0,0,0,0,0,0,0,0,0,0,0,0,0,0,0,0,0,0,0,0,0,0,0,214,
214,0,0,0,0,0,0,0,0,0,0,0,0,0,0,0,0,0,0,0,0,0,0,0,0,0,0,0,0,0,0,0,0,0,0,0,0,0,0,0,0,0,0,0,0,0,0,0,0,0,0,0,0,0,0,0,0,0,0,214,
214,106,107,108,0,0,0,0,0,0,0,0,0,0,0,0,0,0,0,0,0,0,0,0,0,0,0,0,0,0,0,0,0,0,0,0,0,0,0,0,0,0,0,0,0,0,0,0,0,0,0,0,0,0,0,0,106,107,108,214,
214,150,151,152,0,0,0,0,62,63,63,63,63,63,63,63,63,63,63,63,63,63,63,63,63,63,63,63,63,63,63,63,63,63,63,63,63,63,63,63,63,63,63,63,63,63,63,63,63,63,63,64,0,0,0,0,150,151,152,214,
214,0,0,0,0,0,0,0,0,0,0,0,0,0,0,0,0,0,0,0,0,0,0,0,0,0,0,0,0,0,0,0,0,0,0,0,0,0,0,0,0,0,0,0,0,0,0,0,0,0,0,0,0,0,0,0,0,0,0,214,
214,0,0,0,0,0,0,0,0,0,0,0,0,0,0,0,0,0,0,0,0,0,0,0,0,0,0,0,0,0,0,0,0,0,0,0,0,0,0,0,0,0,0,0,0,0,0,0,0,0,0,0,0,0,0,0,0,0,0,214,
214,0,0,0,0,0,0,0,0,0,0,0,0,0,0,0,0,0,0,0,0,0,0,0,0,0,0,0,0,0,0,0,0,0,0,0,0,0,0,0,0,0,0,0,0,0,0,0,0,0,0,0,0,0,0,0,0,0,0,214,
214,0,0,0,0,0,0,0,0,0,0,0,0,0,0,0,0,0,0,0,0,0,0,0,0,0,0,0,0,0,0,0,0,0,0,0,0,0,0,0,0,0,0,0,0,0,0,0,0,0,0,0,0,0,0,0,0,0,0,214,
214,0,0,0,0,0,0,0,0,0,0,0,0,0,0,0,0,0,0,0,0,0,0,0,0,0,0,0,0,0,0,0,0,0,0,0,0,0,0,0,0,0,0,0,0,0,0,0,0,0,0,0,0,0,0,0,0,0,0,214,
214,0,0,0,0,0,0,0,62,63,63,63,63,63,63,63,63,63,63,63,63,63,63,63,63,63,63,63,63,63,63,63,63,63,63,63,63,63,63,63,63,63,63,63,63,63,63,63,63,63,63,64,0,0,0,0,0,0,0,214,
214,0,0,0,0,0,0,0,0,0,0,0,0,0,0,0,0,0,0,0,0,0,0,0,0,0,0,0,0,0,0,0,0,0,0,0,0,0,0,0,0,0,0,0,0,0,0,0,0,0,0,0,0,0,0,0,0,0,0,214,
214,0,0,0,0,0,0,0,0,0,0,0,0,0,0,0,0,0,0,0,0,0,0,0,0,0,0,0,0,0,0,0,0,0,0,0,0,0,0,0,0,0,0,0,0,0,0,0,0,0,0,0,0,0,0,0,0,0,0,214,
214,0,0,0,0,0,0,0,0,0,0,0,0,0,0,0,0,0,0,0,0,0,0,0,0,0,0,0,0,0,0,0,0,0,0,0,0,0,0,0,0,0,0,0,0,0,0,0,0,0,0,0,0,0,0,0,0,0,0,214,
214,0,0,0,0,0,0,0,0,0,0,0,0,0,0,0,0,0,0,0,0,0,0,0,0,0,0,0,0,0,0,0,0,0,0,0,0,0,0,0,0,0,0,0,0,0,0,0,0,0,0,0,0,0,0,0,0,0,0,214,
214,0,0,0,0,0,0,0,0,0,0,0,0,0,0,0,0,0,0,0,0,0,0,0,0,0,0,0,0,0,0,0,0,0,0,0,0,0,0,0,0,0,0,0,0,0,0,0,0,0,0,0,0,0,0,0,0,0,0,214,
214,0,0,0,0,0,0,0,62,63,63,63,63,63,63,63,63,63,63,63,63,63,63,63,63,63,63,63,63,63,63,63,63,63,63,63,63,63,63,63,63,63,63,63,63,63,63,63,63,63,63,64,0,0,0,0,0,0,0,214,
214,0,0,0,0,0,0,0,0,0,0,0,0,0,0,0,0,0,0,0,0,0,0,0,0,0,0,0,0,0,0,0,0,0,0,0,0,0,0,0,0,0,0,0,0,0,0,0,0,0,0,0,0,0,0,0,0,0,0,214,
214,0,0,0,0,0,0,0,0,0,0,0,0,0,0,0,0,0,0,0,0,0,0,0,0,0,0,0,0,0,0,0,0,0,0,0,0,0,0,0,0,0,0,0,0,0,0,0,0,0,0,0,0,0,0,0,0,0,0,214,
214,0,0,0,0,244,244,0,0,0,0,0,0,0,0,0,0,0,0,0,0,0,0,0,0,0,0,0,0,0,0,0,0,0,0,0,0,0,0,0,0,0,0,0,0,0,0,0,0,0,0,0,0,244,244,0,0,0,0,214,
214,8,8,8,8,8,9,0,0,0,0,0,0,0,0,0,0,0,0,0,0,0,0,0,0,0,0,0,0,0,0,0,0,0,0,0,0,0,0,0,0,0,0,0,0,0,0,0,0,0,0,0,0,7,8,8,8,8,9,214,
214,30,30,30,30,30,31,0,0,0,0,0,0,0,0,0,0,0,0,0,0,0,0,0,0,0,0,0,0,0,0,0,0,0,0,0,0,0,0,0,0,0,0,0,0,0,0,0,0,0,0,0,0,29,30,30,30,30,30,214,
236,29,30,30,30,30,31,243,243,243,243,243,243,243,243,243,243,243,243,243,243,243,243,243,243,243,243,243,243,243,243,243,243,243,243,243,243,243,243,243,243,243,243,243,243,243,243,243,243,243,243,243,243,29,30,30,30,30,31,214,
211,51,52,52,52,52,53,190,190,190,190,190,190,190,190,190,190,190,190,190,190,190,190,190,190,190,190,190,190,190,190,190,190,190,190,190,190,190,190,190,190,190,190,190,190,190,190,190,190,190,190,190,190,51,52,52,52,52,53,211
</data>
 </layer>
 <objectgroup id="3" name="Objects">
  <object id="2" gid="303" x="171.333" y="78.6667" width="16" height="16"/>
  <object id="3" gid="303" x="304.667" y="76.6667" width="16" height="16"/>
  <object id="4" gid="303" x="440.667" y="79.3333" width="16" height="16"/>
  <object id="5" gid="303" x="594.667" y="80" width="16" height="16"/>
  <object id="6" gid="303" x="734.667" y="80.6667" width="16" height="16"/>
  <object id="7" gid="304" x="144" y="512" width="32" height="32"/>
  <object id="8" gid="304" x="176" y="480" width="32" height="32"/>
  <object id="9" gid="304" x="208" y="512" width="32" height="32"/>
  <object id="10" gid="304" x="240" y="480" width="32" height="32"/>
  <object id="11" gid="304" x="272" y="512" width="32" height="32"/>
  <object id="12" gid="304" x="304" y="480" width="32" height="32"/>
  <object id="13" gid="304" x="336" y="512" width="32" height="32"/>
  <object id="14" gid="304" x="368" y="480" width="32" height="32"/>
  <object id="15" gid="304" x="400" y="512" width="32" height="32"/>
  <object id="16" gid="304" x="432" y="480" width="32" height="32"/>
  <object id="17" gid="304" x="464" y="512" width="32" height="32"/>
  <object id="18" gid="304" x="496" y="480" width="32" height="32"/>
  <object id="19" gid="304" x="528" y="512" width="32" height="32"/>
  <object id="20" gid="304" x="560" y="480" width="32" height="32"/>
  <object id="21" gid="304" x="592" y="512" width="32" height="32"/>
  <object id="22" gid="304" x="624" y="480" width="32" height="32"/>
  <object id="23" gid="304" x="656" y="512" width="32" height="32"/>
  <object id="24" gid="304" x="688" y="480" width="32" height="32"/>
  <object id="25" gid="304" x="720" y="512" width="32" height="32"/>
  <object id="26" gid="304" x="752" y="480" width="32" height="32"/>
  <object id="28" gid="304" x="784" y="512" width="32" height="32"/>
  <object id="29" gid="304" x="144" y="416" width="32" height="32"/>
  <object id="30" gid="304" x="176" y="384" width="32" height="32"/>
  <object id="31" gid="304" x="208" y="416" width="32" height="32"/>
  <object id="32" gid="304" x="240" y="384" width="32" height="32"/>
  <object id="35" gid="304" x="272" y="416" width="32" height="32"/>
  <object id="36" gid="304" x="304" y="384" width="32" height="32"/>
  <object id="37" gid="304" x="336" y="416" width="32" height="32"/>
  <object id="38" gid="304" x="368" y="384" width="32" height="32"/>
  <object id="39" gid="304" x="400" y="416" width="32" height="32"/>
  <object id="40" gid="304" x="432" y="384" width="32" height="32"/>
  <object id="41" gid="304" x="464" y="416" width="32" height="32"/>
  <object id="42" gid="304" x="496" y="384" width="32" height="32"/>
  <object id="43" gid="304" x="528" y="416" width="32" height="32"/>
  <object id="44" gid="304" x="560" y="384" width="32" height="32"/>
  <object id="45" gid="304" x="592" y="416" width="32" height="32"/>
  <object id="46" gid="304" x="624" y="384" width="32" height="32"/>
  <object id="47" gid="304" x="656" y="416" width="32" height="32"/>
  <object id="48" gid="304" x="688" y="384" width="32" height="32"/>
  <object id="49" gid="304" x="720" y="416" width="32" height="32"/>
  <object id="50" gid="304" x="752" y="384" width="32" height="32"/>
  <object id="51" gid="304" x="784" y="416" width="32" height="32"/>
  <object id="52" gid="304" x="784" y="320" width="32" height="32"/>
  <object id="53" gid="304" x="752" y="288" width="32" height="32"/>
  <object id="54" gid="304" x="720" y="320" width="32" height="32"/>
  <object id="55" gid="304" x="688" y="288" width="32" height="32"/>
  <object id="56" gid="304" x="656" y="320" width="32" height="32"/>
  <object id="57" gid="304" x="624" y="288" width="32" height="32"/>
  <object id="58" gid="304" x="592" y="320" width="32" height="32"/>
  <object id="61" gid="304" x="560" y="288" width="32" height="32"/>
  <object id="62" gid="304" x="528" y="320" width="32" height="32"/>
  <object id="63" gid="304" x="496" y="288" width="32" height="32"/>
  <object id="64" gid="304" x="464" y="320" width="32" height="32"/>
  <object id="65" gid="304" x="432" y="288" width="32" height="32"/>
  <object id="66" gid="304" x="400" y="320" width="32" height="32"/>
  <object id="67" gid="304" x="368" y="288" width="32" height="32"/>
  <object id="68" gid="304" x="336" y="320" width="32" height="32"/>
  <object id="69" gid="304" x="304" y="288" width="32" height="32"/>
  <object id="71" gid="304" x="272" y="320" width="32" height="32"/>
  <object id="72" gid="304" x="240" y="288" width="32" height="32"/>
  <object id="73" gid="304" x="208" y="320" width="32" height="32"/>
  <object id="74" gid="304" x="176" y="288" width="32" height="32"/>
  <object id="75" gid="304" x="144" y="320" width="32" height="32"/>
  <object id="76" gid="304" x="144" y="208" width="32" height="32"/>
  <object id="77" gid="304" x="176" y="176" width="32" height="32"/>
  <object id="78" gid="304" x="208" y="208" width="32" height="32"/>
  <object id="79" gid="304" x="240" y="176" width="32" height="32"/>
  <object id="80" gid="304" x="272" y="208" width="32" height="32"/>
  <object id="81" gid="304" x="304" y="176" width="32" height="32"/>
  <object id="82" gid="304" x="336" y="208" width="32" height="32"/>
  <object id="83" gid="304" x="368" y="176" width="32" height="32"/>
  <object id="84" gid="304" x="400" y="208" width="32" height="32"/>
  <object id="85" gid="304" x="432" y="176" width="32" height="32"/>
  <object id="86" gid="304" x="464" y="208" width="32" height="32"/>
  <object id="87" gid="304" x="496" y="176" width="32" height="32"/>
  <object id="88" gid="304" x="528" y="208" width="32" height="32"/>
  <object id="89" gid="304" x="560" y="176" width="32" height="32"/>
  <object id="90" gid="304" x="592" y="208" width="32" height="32"/>
  <object id="91" gid="304" x="624" y="176" width="32" height="32"/>
  <object id="92" gid="304" x="656" y="208" width="32" height="32"/>
  <object id="93" gid="304" x="688" y="176" width="32" height="32"/>
  <object id="94" gid="304" x="720" y="208" width="32" height="32"/>
  <object id="95" gid="304" x="752" y="176" width="32" height="32"/>
  <object id="96" gid="304" x="784" y="208" width="32" height="32"/>
  <object id="97" name="player" gid="357" x="32" y="576" width="32" height="32"/>
  <object id="101" name="flying_enemy" x="480" y="210" width="32" height="32"/>
  <object id="102" name="flying_enemy" x="720" y="280" width="32" height="32"/>
  <object id="103" name="magnet_spawn" x="168" y="576" width="16" height="16"/>
  <object id="104" name="magnet_spawn" x="480" y="400" width="16" height="16"/>
  <object id="105" name="magnet_spawn" x="792" y="512" width="16" height="16"/>
  <object id="106" name="speed_spawn" x="480" y="288" width="16" height="16"/>
  <object id="107" name="speed_spawn" x="320" y="416" width="16" height="16"/>
 </objectgroup>
</map>
