<?xml version="1.0" encoding="UTF-8"?>
<map version="1.10" tiledversion="1.12.2" orientation="orthogonal" renderorder="right-down" width="50" height="22" tilewidth="16" tileheight="16" infinite="0" nextlayerid="5" nextobjectid="10">
 <tileset firstgid="1" source="level09/Terrain (16x16).tsx"/>
 <tileset firstgid="321" source="level09/player1.tsx"/>
 <imagelayer id="2" name="Background" repeatx="1" repeaty="1">
  <image source="level09/background.png" width="395" height="63"/>
 </imagelayer>
 <layer id="1" name="碰撞" width="50" height="22">
  <data encoding="csv">
24,24,24,24,24,24,24,24,24,24,24,24,24,24,24,24,24,24,24,24,24,24,24,24,24,24,24,24,92,134,134,134,134,134,134,134,134,134,134,134,134,134,134,134,134,134,134,134,134,134,
24,24,24,24,24,24,24,24,24,24,24,24,24,24,24,24,24,24,24,24,24,24,24,24,24,24,24,24,113,0,0,0,0,0,0,0,0,0,0,0,0,0,0,0,0,0,0,0,0,0,
24,24,24,24,24,24,24,24,24,24,24,24,24,24,24,24,24,24,24,24,24,24,24,24,24,24,24,24,113,0,0,0,0,0,0,0,0,0,0,0,0,0,0,0,0,0,0,0,0,0,
24,24,24,24,24,24,24,24,24,24,24,24,24,24,24,24,24,24,24,24,24,24,24,24,24,24,24,24,113,0,0,0,0,0,0,0,0,0,0,0,0,0,0,0,0,0,0,0,0,0,
24,24,24,24,24,24,24,24,24,24,24,24,24,24,24,24,24,24,24,24,24,24,24,24,24,24,24,24,113,0,0,0,0,0,0,0,0,0,0,0,0,0,0,0,0,0,0,0,0,0,
24,24,24,24,24,24,24,24,24,24,24,24,24,24,24,24,24,24,24,24,24,24,24,24,24,24,24,24,113,0,0,0,0,0,0,0,0,0,0,0,0,0,0,0,0,0,0,0,0,0,
24,24,24,24,24,24,24,24,24,24,24,24,24,24,24,24,92,134,134,134,134,134,134,134,134,134,134,134,135,0,0,0,0,0,0,0,0,0,0,0,0,0,0,0,0,0,0,0,0,0,
24,24,24,24,24,24,24,24,24,24,24,24,24,24,24,24,113,0,0,0,0,0,0,0,0,0,0,0,0,0,0,0,0,0,0,0,0,0,0,0,0,0,0,0,0,0,0,0,0,0,
24,24,24,24,24,24,24,24,24,24,24,24,24,24,24,24,113,0,0,0,0,0,0,0,0,0,0,0,0,0,0,0,0,0,0,0,0,0,0,0,0,0,0,0,0,0,0,0,0,0,
24,24,24,24,24,24,24,24,24,24,24,24,24,24,24,24,113,0,0,0,0,0,0,0,0,0,0,0,0,0,0,0,0,0,0,0,0,0,0,0,0,0,0,0,0,0,0,0,0,0,
24,24,24,24,24,24,24,24,24,24,24,24,24,24,24,24,113,0,0,0,0,0,0,0,0,0,0,0,0,0,0,0,0,0,0,0,0,0,0,0,0,0,0,0,0,0,0,0,0,0,
24,24,24,24,24,24,24,24,24,24,24,24,24,24,24,24,113,0,0,0,0,0,0,0,0,0,0,0,0,0,0,0,0,0,0,0,0,0,0,0,0,0,0,0,0,0,0,0,0,0,
24,24,24,24,24,24,24,24,24,24,24,24,24,24,24,24,113,0,0,0,0,0,0,0,0,0,0,0,0,0,0,0,0,0,0,0,0,0,0,0,0,0,0,0,0,0,0,0,0,0,
24,24,24,24,24,24,24,24,24,24,24,24,24,24,24,24,113,0,0,0,0,0,0,0,0,0,0,0,0,0,0,0,0,0,0,0,0,0,0,0,0,0,0,0,0,0,0,0,0,0,
24,24,24,24,24,24,24,24,24,24,24,24,24,24,24,24,113,0,0,0,0,0,0,0,0,0,0,0,0,0,0,0,0,0,0,0,0,0,0,0,0,0,0,0,0,0,0,0,0,0,
24,24,24,24,24,24,24,24,24,24,24,24,24,24,24,24,113,0,0,0,0,0,0,0,0,0,0,0,0,0,0,0,0,0,0,0,0,0,0,0,0,0,0,0,0,0,0,0,0,0,
24,24,24,24,24,24,24,24,24,24,24,24,24,24,24,24,113,0,0,0,0,0,0,0,0,0,0,0,0,0,0,0,0,0,0,0,0,0,0,13,14,15,0,0,0,0,0,0,0,0,
24,24,24,24,24,24,24,24,24,24,24,24,24,24,24,24,113,0,0,0,0,0,0,0,0,0,0,0,0,0,0,0,0,0,0,0,0,0,0,0,0,0,0,0,0,0,0,0,0,0,
24,24,24,24,24,24,24,24,24,24,24,24,24,24,24,24,113,0,0,0,0,0,0,0,0,0,0,0,0,0,0,0,0,0,0,0,0,0,0,0,0,0,0,0,0,0,0,0,0,0,
24,24,24,24,24,24,24,24,24,24,24,24,24,24,24,24,113,8,8,8,8,8,8,8,8,8,8,8,8,8,8,9,0,0,0,0,0,0,0,0,0,0,0,0,0,0,0,0,0,0,
24,24,24,24,24,24,24,24,24,24,24,24,24,24,24,24,113,30,30,30,30,30,30,30,30,30,30,30,30,30,30,31,0,0,0,0,0,0,0,0,0,0,0,0,0,0,0,0,0,0,
24,24,24,24,24,24,24,24,24,24,24,24,24,24,24,24,113,30,30,10,52,52,52,52,52,11,30,30,30,30,30,31,0,0,0,0,0,0,0,0,0,0,0,0,0,0,0,0,0,0
</data>
 </layer>
 <objectgroup id="3" name="Objects">
  <object id="1" name="player1" gid="321" x="320" y="288" width="32" height="32"/>
  <object id="2" name="player2" gid="321" x="368" y="288" width="32" height="32"/>
 </objectgroup>
</map>
