<?xml version="1.0" encoding="UTF-8"?>
<map version="1.10" tiledversion="1.12.2" orientation="orthogonal" renderorder="right-down" width="44" height="24" tilewidth="16" tileheight="16" infinite="0" nextlayerid="4" nextobjectid="70">
 <tileset firstgid="1" source="Terrain (16x16).tsx"/>
 <tileset firstgid="243" source="Idle.tsx"/>
 <tileset firstgid="244" source="Spiked Ball.tsx"/>
 <tileset firstgid="245" source="rock head.tsx"/>
 <tileset firstgid="269" source="Kiwi.tsx"/>
 <tileset firstgid="286" source="On (38x38).tsx"/>
 <tileset firstgid="294" source="Chain.tsx"/>
 <imagelayer id="2" name="图像图层 1" offsetx="0" offsety="-896" repeatx="1" repeaty="1">
  <image source="Green.png" width="64" height="64"/>
 </imagelayer>
 <layer id="1" name="图块层 1" width="44" height="24">
  <data encoding="csv">
180,222,222,222,222,222,222,222,222,222,222,222,222,222,222,222,222,222,222,222,222,222,222,222,222,222,222,222,222,222,222,222,222,222,222,222,222,222,222,222,222,222,222,181,
201,0,0,0,0,0,0,0,0,123,0,0,0,0,0,0,0,123,0,0,0,0,0,0,123,0,0,0,0,0,0,0,123,0,0,0,0,0,0,0,0,0,0,199,
201,0,0,0,0,0,0,0,0,0,0,0,0,0,0,0,0,0,0,0,0,0,0,0,0,0,0,0,0,0,0,0,0,0,0,0,0,0,0,0,0,0,0,199,
201,0,0,0,0,0,0,0,0,0,0,0,0,0,0,0,0,0,0,0,0,0,0,0,0,0,0,0,0,0,0,0,0,0,0,0,0,0,0,0,0,0,0,199,
201,0,0,0,0,0,0,0,0,0,0,0,0,0,0,0,0,0,0,0,0,0,0,0,0,0,0,0,0,0,0,0,0,0,0,0,0,0,0,0,0,0,0,199,
201,0,0,0,0,0,0,0,0,0,0,0,0,0,0,0,0,0,0,0,0,0,0,0,0,0,0,0,0,0,0,0,0,0,0,0,0,0,0,0,0,0,0,199,
201,0,0,0,0,0,0,0,0,0,0,0,0,0,0,0,0,0,0,0,0,0,0,0,0,0,0,0,0,0,0,0,0,0,0,0,0,0,0,0,0,0,0,199,
201,101,102,102,102,102,102,102,102,102,102,102,102,102,102,102,102,102,102,102,102,102,102,102,102,102,102,102,102,102,102,102,102,102,102,102,102,102,103,0,0,0,0,199,
201,0,0,0,0,0,0,0,0,0,0,0,0,0,0,0,0,0,0,0,0,0,0,0,0,0,0,0,0,0,0,0,0,0,0,0,0,0,0,0,0,0,0,199,
201,0,0,0,0,0,0,0,0,0,0,0,0,0,0,0,0,0,0,0,0,0,0,0,0,0,0,0,0,0,0,0,0,0,0,0,0,0,0,0,0,0,0,199,
201,0,0,0,0,0,0,0,0,0,0,0,0,0,0,0,0,0,0,0,0,0,0,0,0,0,0,0,0,0,0,0,0,0,0,0,0,0,0,0,0,0,0,199,
201,0,0,0,0,0,0,0,0,0,0,0,0,0,0,0,0,0,0,0,0,0,0,0,0,0,0,0,0,0,0,0,0,0,0,0,0,0,0,0,0,0,0,199,
201,0,0,0,0,0,0,0,124,125,0,0,0,0,0,0,0,0,0,0,0,124,125,0,0,0,0,0,0,0,0,0,0,124,125,0,0,0,0,0,0,0,0,199,
201,0,0,0,0,0,0,0,146,147,0,0,0,0,0,0,0,0,0,0,0,146,147,0,0,0,0,0,0,0,0,0,0,146,147,0,0,0,0,0,0,0,0,199,
201,101,102,102,102,102,102,102,102,102,102,102,102,102,102,102,102,102,102,102,102,102,102,102,102,102,102,102,102,102,102,102,102,102,102,102,102,102,103,0,0,0,0,199,
201,0,0,0,0,0,0,0,0,0,0,0,0,0,0,0,0,0,0,0,0,0,0,0,0,0,0,0,0,0,0,0,0,0,0,0,0,0,0,0,0,0,0,199,
201,0,0,0,0,0,0,0,0,0,0,0,0,0,0,0,0,0,0,0,0,0,0,0,0,0,0,0,0,0,0,0,0,0,0,0,0,0,0,0,0,0,0,199,
201,0,0,0,0,0,0,0,0,0,0,0,0,0,0,0,0,0,0,0,0,0,0,0,0,0,0,0,0,0,0,0,0,0,0,0,0,0,0,0,0,0,0,199,
201,0,0,0,0,0,0,0,0,0,0,0,0,0,0,0,0,0,0,0,0,0,0,0,0,0,0,0,0,0,0,0,0,0,0,0,0,0,0,0,0,124,125,199,
201,124,125,0,0,0,0,0,0,0,0,0,0,0,0,0,0,0,0,0,0,0,0,0,0,0,0,0,0,0,0,0,0,0,0,0,0,0,0,0,123,146,147,199,
201,146,147,0,0,0,0,0,0,0,0,0,0,0,0,0,0,0,0,0,0,0,0,0,0,0,0,0,0,0,0,0,0,0,0,0,124,125,124,125,124,125,126,199,
201,124,125,124,125,124,125,124,125,124,125,0,0,0,0,101,102,103,0,0,0,0,101,102,103,0,0,0,0,101,102,103,0,0,0,0,146,147,146,147,146,147,126,199,
201,146,147,146,147,146,147,146,147,146,147,243,243,243,243,243,243,243,243,243,243,243,243,243,243,243,243,243,243,243,243,243,243,243,243,243,123,123,123,123,123,123,123,199,
202,178,178,178,178,178,178,178,178,178,178,178,178,178,178,178,178,178,178,178,178,178,178,178,178,178,178,178,178,178,178,178,178,178,178,178,178,178,178,178,178,178,178,203
</data>
 </layer>
 <objectgroup id="3" name="对象层 1">
  <object id="4" gid="253" x="652.5" y="137" width="42" height="42"/>
  <object id="5" gid="253" x="430" y="229.667" width="42" height="42"/>
  <object id="6" gid="253" x="217.5" y="229" width="42" height="42"/>
  <object id="7" gid="269" x="247.5" y="335" width="32" height="32"/>
  <object id="8" gid="269" x="304" y="304" width="32" height="32"/>
  <object id="9" gid="269" x="360" y="336.5" width="32" height="32"/>
  <object id="11" gid="269" x="416" y="304" width="32" height="32"/>
  <object id="12" gid="269" x="471.5" y="336.5" width="32" height="32"/>
  <object id="13" gid="269" x="368" y="224" width="32" height="32"/>
  <object id="14" gid="269" x="400" y="224" width="32" height="32"/>
  <object id="15" gid="269" x="432" y="224" width="32" height="32"/>
  <object id="16" gid="269" x="464" y="224" width="32" height="32"/>
  <object id="17" gid="269" x="496" y="224" width="32" height="32"/>
  <object id="18" gid="269" x="432" y="192" width="32" height="32"/>
  <object id="19" gid="269" x="304" y="224" width="32" height="32"/>
  <object id="20" gid="269" x="268.5" y="225.5" width="32" height="32"/>
  <object id="21" gid="269" x="232" y="226.5" width="32" height="32"/>
  <object id="22" gid="269" x="208" y="224" width="32" height="32"/>
  <object id="23" gid="269" x="176" y="224" width="32" height="32"/>
  <object id="24" gid="269" x="224" y="192" width="32" height="32"/>
  <object id="26" gid="269" x="32" y="192" width="32" height="32"/>
  <object id="28" gid="269" x="16" y="224" width="32" height="32"/>
  <object id="29" gid="269" x="16" y="208" width="32" height="32"/>
  <object id="30" gid="269" x="16" y="208" width="32" height="32"/>
  <object id="31" gid="269" x="48" y="192" width="32" height="32"/>
  <object id="32" gid="269" x="16" y="192" width="32" height="32"/>
  <object id="33" gid="269" x="32" y="208" width="32" height="32"/>
  <object id="34" gid="269" x="32" y="224" width="32" height="32"/>
  <object id="35" gid="269" x="48" y="224" width="32" height="32"/>
  <object id="36" gid="269" x="48" y="208" width="32" height="32"/>
  <object id="37" gid="286" x="247.667" y="285.667" width="38" height="38"/>
  <object id="38" gid="286" x="357.667" y="284.333" width="38" height="38"/>
  <object id="39" gid="286" x="469.667" y="287" width="38" height="38"/>
  <object id="41" gid="244" x="484" y="97" width="28" height="28"/>
  <object id="42" gid="244" x="356" y="96.5" width="28" height="28"/>
  <object id="43" gid="244" x="244" y="97" width="28" height="28"/>
  <object id="46" gid="244" x="117.5" y="95" width="28" height="28"/>
  <object id="47" gid="294" x="146.667" y="40.6667" width="8" height="8"/>
  <object id="48" gid="294" x="142.667" y="54.6667" width="8" height="8"/>
  <object id="49" gid="294" x="140" y="67.3333" width="8" height="8"/>
  <object id="50" gid="294" x="272.667" y="43.3333" width="8" height="8"/>
  <object id="51" gid="294" x="270" y="54.6667" width="8" height="8"/>
  <object id="52" gid="294" x="266.667" y="67.3333" width="8" height="8"/>
  <object id="53" gid="294" x="387.333" y="44" width="8" height="8"/>
  <object id="54" gid="294" x="384" y="55.3333" width="8" height="8"/>
  <object id="55" gid="294" x="378.667" y="68.6667" width="8" height="8"/>
  <object id="56" gid="294" x="515.333" y="42.6667" width="8" height="8"/>
  <object id="57" gid="294" x="512" y="53.3333" width="8" height="8"/>
  <object id="58" gid="294" x="507.333" y="62" width="8" height="8"/>
  <object id="60" gid="269" x="560" y="112" width="32" height="32"/>
  <object id="61" gid="269" x="504" y="78.5" width="32" height="32"/>
  <object id="62" gid="269" x="432" y="112" width="32" height="32"/>
  <object id="63" gid="269" x="374.5" y="79" width="32" height="32"/>
  <object id="64" gid="269" x="320" y="112" width="32" height="32"/>
  <object id="65" gid="269" x="262" y="78.5" width="32" height="32"/>
  <object id="66" gid="269" x="192" y="112" width="32" height="32"/>
  <object id="67" gid="269" x="135.5" y="80.5" width="32" height="32"/>
  <object id="68" gid="269" x="64" y="112" width="32" height="32"/>
  <object id="69" gid="269" x="16" y="64" width="32" height="32"/>
 </objectgroup>
</map>
