<?xml version="1.0" encoding="UTF-8"?>
<map version="1.10" tiledversion="1.12.2" orientation="orthogonal" renderorder="right-down" width="60" height="40" tilewidth="16" tileheight="16" infinite="0" nextlayerid="5" nextobjectid="69">
 <tileset firstgid="1" source="level01/terrain.tsj"/>
 <tileset firstgid="243" source="level01/apple.tsj"/>
 <tileset firstgid="260" source="level01/player-frog.tsj"/>
 <tileset firstgid="344" source="level02/Terrain (16x16).tsx"/>
 <tileset firstgid="586" source="level03/Terrain (16x16).tsx"/>
 <imagelayer id="2" name="Background" repeatx="1" repeaty="1">
  <image source="tilesets/Background/Brown.png" width="64" height="64"/>
 </imagelayer>
 <layer id="1" name="碰撞" width="60" height="40">
  <data encoding="csv">
432,433,433,433,433,433,433,433,433,433,433,433,433,433,433,433,433,433,433,433,433,433,433,433,433,433,433,433,433,433,433,433,433,433,433,433,433,433,433,433,433,433,433,433,433,433,433,433,433,433,433,433,433,433,433,433,433,433,433,433,
454,36,37,35,0,0,0,0,0,0,0,0,0,0,0,0,0,0,0,0,0,0,0,0,0,0,0,0,0,0,0,0,0,0,0,0,0,0,0,0,0,0,0,0,0,0,0,0,0,0,0,0,0,0,0,0,0,0,0,456,
454,58,59,0,0,0,0,0,0,0,0,0,0,0,0,0,0,0,0,0,0,0,0,0,0,0,0,0,0,0,0,0,0,0,0,0,0,0,0,0,0,0,0,0,0,0,0,0,0,0,0,0,0,0,0,0,0,0,0,456,
454,0,0,0,0,0,0,0,0,0,0,0,0,0,0,0,0,0,0,0,0,0,0,0,0,0,0,0,0,0,0,0,0,0,0,0,0,0,0,0,0,0,0,0,0,0,0,0,0,0,0,0,0,0,0,0,0,0,0,456,
454,0,0,0,0,0,0,0,0,768,769,769,769,769,769,769,769,769,769,769,769,769,769,769,769,769,769,769,769,769,769,769,769,769,769,769,0,0,0,0,0,0,0,0,769,769,769,769,769,769,0,0,0,0,0,0,0,0,0,456,
454,0,0,0,0,0,0,0,768,791,791,791,791,791,791,791,791,791,791,791,791,791,791,791,791,791,791,791,791,791,791,791,791,791,791,769,769,769,769,769,769,769,769,769,769,791,791,791,791,769,769,769,769,769,769,769,769,769,769,698,
454,0,0,0,0,0,0,0,0,0,0,0,0,0,0,0,0,0,0,0,0,0,0,0,0,0,0,0,0,0,0,0,0,0,0,0,0,0,0,0,0,0,0,0,0,0,0,0,0,0,0,0,0,0,0,0,0,0,0,456,
454,769,769,769,769,0,0,0,0,0,0,0,0,0,0,0,0,0,0,0,0,0,0,0,0,0,0,0,0,0,0,0,0,0,0,0,0,0,0,0,0,0,0,0,0,0,0,0,0,0,0,0,0,0,0,0,0,0,0,456,
454,791,791,791,791,0,0,0,0,0,0,0,0,0,0,0,0,0,0,0,0,0,0,0,0,0,0,0,0,0,0,0,0,0,0,0,0,0,0,0,0,0,0,0,0,0,0,0,0,0,0,0,0,0,0,0,0,0,0,456,
454,791,791,791,791,0,0,0,0,0,0,0,0,0,0,0,0,0,0,0,0,0,0,0,0,0,0,0,0,0,0,0,0,0,0,0,0,0,0,0,0,0,0,0,0,0,0,0,0,0,0,0,0,0,0,0,0,0,0,456,
454,791,791,791,791,625,626,626,626,626,626,0,0,0,0,0,0,0,0,0,0,0,0,0,0,0,0,0,0,0,0,0,0,0,0,0,0,0,0,0,0,0,0,0,0,0,0,0,0,0,0,0,0,0,0,0,0,0,0,456,
454,791,791,791,791,0,0,0,0,0,0,0,0,0,0,0,184,184,184,184,184,184,0,0,0,0,0,0,0,0,0,0,0,0,0,0,0,0,0,0,0,0,0,0,0,0,0,0,0,0,0,0,0,0,0,0,0,0,0,456,
454,791,791,791,791,0,0,0,0,0,0,0,0,0,0,0,206,791,791,791,791,791,0,0,0,0,0,0,0,0,0,0,0,0,0,0,0,0,0,0,0,0,0,0,0,0,0,0,0,0,0,0,0,0,0,0,0,0,0,456,
454,791,791,791,791,0,0,0,0,0,0,0,0,769,769,184,206,791,791,791,791,791,184,184,184,0,0,0,0,0,0,0,0,0,0,0,0,0,0,0,0,0,0,0,0,0,0,0,0,0,0,0,0,0,0,0,0,0,0,456,
454,791,791,791,791,0,0,0,0,0,0,0,0,791,791,791,791,791,791,791,791,791,206,206,206,0,0,0,0,0,0,0,0,0,0,0,0,0,0,0,0,0,0,0,0,0,0,0,0,0,0,0,0,0,0,0,0,0,0,456,
454,791,791,791,791,769,769,769,769,769,769,769,769,769,769,791,791,791,791,791,791,791,206,206,183,184,184,0,0,0,0,0,0,0,0,0,0,0,0,0,0,0,0,0,0,0,0,0,0,0,0,0,0,0,0,0,0,0,0,456,
454,791,791,791,791,791,791,791,791,791,791,791,791,791,791,791,791,791,791,791,791,791,791,791,791,206,206,527,527,527,527,527,527,527,527,527,527,527,527,527,527,527,527,528,0,0,0,0,0,0,0,0,0,0,0,0,0,0,0,456,
454,0,0,0,0,0,0,0,0,0,0,0,0,0,0,0,0,0,0,0,0,0,0,0,0,0,0,0,0,0,0,0,0,0,0,0,0,0,0,0,0,0,0,0,0,0,0,0,0,0,0,0,0,0,0,0,0,0,0,456,
454,0,0,0,0,0,0,0,0,0,0,0,0,0,0,0,0,0,0,0,0,0,0,0,0,0,0,0,0,0,0,0,0,0,0,0,0,0,0,0,0,0,0,0,0,0,0,0,0,0,0,0,0,0,0,0,0,0,0,456,
454,0,0,0,0,0,0,0,0,0,0,0,0,0,0,0,0,0,0,0,0,0,0,0,0,0,0,0,0,0,0,0,0,0,0,0,0,0,0,0,0,0,0,0,0,0,593,593,593,593,593,593,593,593,593,593,593,593,593,456,
454,0,0,0,0,0,0,0,0,0,0,0,0,0,0,0,0,0,0,0,0,0,0,0,0,0,0,0,0,0,0,0,592,593,593,593,593,593,593,593,593,593,593,593,593,593,615,615,615,615,615,615,615,615,615,615,615,615,615,456,
454,0,0,0,0,0,0,0,0,0,0,0,0,0,0,0,0,0,0,0,0,0,0,0,0,0,0,0,0,0,0,0,615,615,615,615,615,615,615,615,615,615,615,615,615,615,615,615,615,615,615,615,615,615,615,615,615,615,615,456,
454,0,0,0,0,0,0,620,599,599,599,599,599,599,620,0,0,0,0,0,0,0,0,0,0,0,0,0,0,0,0,0,0,0,0,0,0,0,0,0,0,0,0,0,0,0,0,0,0,0,0,0,0,0,0,0,0,0,0,456,
454,0,0,0,0,0,0,0,0,0,0,0,0,0,0,0,0,0,625,626,626,626,626,626,626,626,626,626,627,0,0,0,0,0,0,0,0,0,0,0,0,0,0,0,0,0,0,0,0,0,0,0,0,0,0,0,0,0,0,456,
454,0,0,0,0,0,0,0,0,0,0,0,0,0,0,0,0,0,0,0,0,0,0,0,0,0,0,0,0,0,0,0,0,0,0,0,0,0,0,0,0,0,0,0,0,0,0,0,0,0,0,0,0,0,0,0,0,0,0,456,
454,384,384,385,0,0,0,0,0,0,0,0,0,0,0,0,0,0,0,0,0,0,0,0,0,0,0,0,0,0,0,0,0,0,0,0,0,0,0,0,0,0,0,0,0,0,0,0,0,0,0,0,0,0,0,0,0,0,0,456,
454,0,0,0,0,0,0,0,0,0,0,0,0,0,0,0,0,0,0,0,0,0,0,0,0,0,0,0,0,0,0,0,0,0,0,0,0,0,0,0,0,0,0,0,0,0,0,0,0,0,0,0,0,0,0,0,0,0,0,456,
696,0,0,0,0,0,0,0,0,0,0,0,0,0,0,0,0,0,0,0,0,0,0,0,0,0,0,0,0,0,0,0,0,0,0,0,0,0,0,0,0,0,0,0,0,0,0,0,0,0,0,0,0,0,0,0,0,0,0,456,
454,681,681,681,681,681,681,681,681,681,681,681,681,681,681,681,681,681,681,681,681,681,681,681,681,681,681,0,0,0,0,0,0,0,0,0,0,0,0,0,0,0,0,0,0,0,0,0,0,0,0,0,0,0,0,0,0,0,0,456,
454,703,703,703,703,703,703,703,703,703,703,703,703,703,703,703,703,703,703,703,703,703,703,703,703,703,703,681,681,681,0,0,0,0,0,0,0,0,0,0,0,0,0,0,0,0,0,0,0,0,0,0,0,0,0,0,0,0,0,456,
454,0,0,0,0,0,0,0,0,0,0,0,0,0,0,0,0,0,0,0,0,0,0,0,0,0,703,703,703,705,439,439,439,439,439,439,439,439,439,439,439,439,439,439,439,439,439,439,439,439,439,0,0,0,0,0,0,0,0,456,
454,0,0,0,0,0,0,0,0,0,0,0,0,0,0,0,0,0,0,0,0,0,0,0,0,0,0,0,0,0,0,0,0,0,0,0,0,0,0,0,0,0,0,0,0,0,0,0,0,0,0,0,0,0,0,0,0,0,0,456,
454,0,0,0,0,0,0,0,0,0,0,0,0,0,0,0,0,0,0,0,0,0,0,0,0,0,0,0,0,0,0,0,0,0,0,0,0,0,0,0,0,0,0,0,0,0,0,0,0,0,0,0,0,0,0,0,0,0,0,456,
454,0,0,0,0,0,0,0,0,0,0,0,0,0,0,0,0,0,0,0,0,0,0,0,0,0,0,0,0,0,0,0,0,0,0,0,0,0,0,0,0,0,0,0,0,0,0,0,0,0,0,0,0,0,350,350,351,351,352,456,
454,0,0,0,0,0,0,0,0,0,0,0,0,0,0,0,0,0,0,0,0,0,0,0,0,0,0,0,0,0,0,0,0,0,0,0,0,0,0,0,0,0,0,0,0,0,0,0,0,0,0,0,0,0,373,373,373,373,373,456,
454,0,0,0,0,0,0,0,0,0,0,0,0,0,0,0,0,0,0,0,0,0,0,0,0,0,0,0,0,0,0,0,0,0,0,0,0,0,0,0,0,0,0,0,0,0,0,0,0,0,0,0,0,0,373,373,373,373,373,456,
454,350,351,351,351,351,351,351,351,351,351,351,351,351,351,351,351,351,351,351,351,351,351,351,351,351,351,351,351,351,351,351,351,351,351,351,351,351,351,351,351,351,351,351,351,351,351,351,351,351,351,351,351,351,351,351,373,373,373,456,
454,372,373,373,373,373,373,373,373,373,373,373,373,373,373,373,373,373,373,373,373,373,373,373,373,373,373,373,373,373,373,373,373,373,373,373,373,373,373,373,373,373,373,373,373,373,373,373,373,373,373,373,373,373,373,373,373,373,374,456,
454,372,373,373,373,373,373,373,373,373,373,373,373,373,373,373,373,373,373,373,373,373,373,373,373,373,373,373,373,373,373,373,373,373,373,373,373,373,373,373,373,373,373,373,373,373,373,373,373,373,373,373,373,373,373,373,373,373,374,456,
476,477,477,477,477,477,477,477,477,477,477,477,477,477,477,477,477,477,477,477,477,477,477,477,477,477,477,477,477,477,477,477,477,477,477,477,477,477,477,477,477,477,477,477,477,477,477,477,477,477,477,477,477,477,477,477,477,477,477,478
</data>
 </layer>
 <objectgroup id="3" name="Objects">
  <object id="26" gid="243" x="126" y="566" width="32" height="32"/>
  <object id="27" gid="243" x="179" y="564" width="32" height="32"/>
  <object id="28" gid="243" x="153" y="539" width="32" height="32"/>
  <object id="29" gid="243" x="320" y="576" width="32" height="32"/>
  <object id="30" gid="243" x="352" y="576" width="32" height="32"/>
  <object id="31" gid="243" x="384" y="576" width="32" height="32"/>
  <object id="32" gid="243" x="416" y="576" width="32" height="32"/>
  <object id="33" gid="243" x="608" y="560" width="32" height="32"/>
  <object id="34" gid="243" x="640" y="560" width="32" height="32"/>
  <object id="35" gid="243" x="624" y="528" width="32" height="32"/>
  <object id="36" gid="243" x="896" y="528" width="32" height="32"/>
  <object id="37" gid="243" x="624" y="464" width="32" height="32"/>
  <object id="38" gid="243" x="656" y="464" width="32" height="32"/>
  <object id="39" gid="243" x="688" y="464" width="32" height="32"/>
  <object id="40" gid="243" x="672" y="432" width="32" height="32"/>
  <object id="41" gid="243" x="640" y="432" width="32" height="32"/>
  <object id="42" gid="243" x="32" y="400" width="32" height="32"/>
  <object id="43" gid="243" x="64" y="368" width="32" height="32"/>
  <object id="44" gid="243" x="136" y="352" width="32" height="32"/>
  <object id="45" gid="243" x="189.333" y="352.667" width="32" height="32"/>
  <object id="46" gid="243" x="162.667" y="326" width="32" height="32"/>
  <object id="47" gid="243" x="336.667" y="368" width="32" height="32"/>
  <object id="48" gid="243" x="385.333" y="366" width="32" height="32"/>
  <object id="49" gid="243" x="600.667" y="249.333" width="32" height="32"/>
  <object id="50" gid="243" x="656.667" y="247.333" width="32" height="32"/>
  <object id="51" gid="243" x="625.333" y="211.333" width="32" height="32"/>
  <object id="54" gid="243" x="88" y="159" width="32" height="32"/>
  <object id="55" gid="243" x="134" y="159" width="32" height="32"/>
  <object id="56" gid="243" x="34" y="113" width="32" height="32"/>
  <object id="57" gid="243" x="249" y="65" width="32" height="32"/>
  <object id="58" gid="243" x="290" y="65" width="32" height="32"/>
  <object id="59" gid="243" x="338" y="64" width="32" height="32"/>
  <object id="60" gid="243" x="625" y="82" width="32" height="32"/>
  <object id="61" gid="243" x="823" y="83" width="32" height="32"/>
  <object id="62" gid="243" x="869" y="84" width="32" height="32"/>
  <object id="63" gid="243" x="912" y="81" width="32" height="32"/>
  <object id="64" gid="243" x="848" y="54" width="32" height="32"/>
  <object id="65" gid="243" x="889" y="54" width="32" height="32"/>
  <object id="66" gid="243" x="867" y="299" width="32" height="32"/>
  <object id="67" gid="243" x="812" y="299" width="32" height="32"/>
  <object id="68" name="player1" gid="296" x="80" y="576" width="32" height="32"/>
 </objectgroup>
</map>
